Adwaita++/actions/symbolic/location-symbolic.svg

<svg xmlns="http://www.w3.org/2000/svg" width="16" height="16" version="1.1">
 <path style="fill:#474747" d="M 4,2 V 4 H 11 C 12.68,4 14,5.321 14,7 14,8.679 12.68,10 11,10 H 10 V 8 L 5,11 10,14 V 12 H 11 C 13.75,12.101 16,9.753 16,7 16,4.247 13.75,2 11,2 Z M 2,9 A 2,2 0 0 0 0,11 2,2 0 0 0 2,13 2,2 0 0 0 4,11 2,2 0 0 0 2,9 Z"/>
</svg>

<svg height="16" width="16" xmlns="http://www.w3.org/2000/svg">
  <path d="m4 2v2h7c1.68 0 3 1.321 3 3s-1.32 3-3 3h-1v-2l-5 3 5 3v-2h1c2.75.101 5-2.247 5-5s-2.25-5-5-5zm-2 7a2 2 0 0 0 -2 2 2 2 0 0 0 2 2 2 2 0 0 0 2-2 2 2 0 0 0 -2-2z" fill="#474747"/>
</svg>
